apps/tingle-app/src/assets/tingle.svg

<svg width="350" height="350" viewBox="0 0 350 350" fill="none" xmlns="http://www.w3.org/2000/svg">
<g filter="url(#filter0_i_8_140)">
<path d="M213.004 238.293C214.792 238.303 216.333 237.038 216.671 235.282L242.921 98.7347C243.627 95.0616 239.071 92.7701 236.543 95.5267L164.258 174.361C164.021 174.619 163.749 174.842 163.45 175.024L72.054 230.575C68.858 232.518 70.2187 237.433 73.9589 237.456L213.004 238.293Z" fill="#0080FF"/>
<path d="M135.481 237.855C133.694 237.842 132.169 236.555 131.856 234.795L107.473 97.9017C106.817 94.2193 111.404 91.9903 113.894 94.7811L185.096 174.595C185.329 174.856 185.598 175.083 185.895 175.269L276.523 232.063C279.692 234.05 278.265 238.946 274.525 238.918L135.481 237.855Z" fill="#0080FF"/>
</g>
<defs>
<filter id="filter0_i_8_140" x="70.2646" y="93.5266" width="219.355" height="154.995" filterUnits="userSpaceOnUse" color-interpolation-filters="sRGB">
<feFlood flood-opacity="0" result="BackgroundImageFix"/>
<feBlend mode="normal" in="SourceGraphic" in2="BackgroundImageFix" result="shape"/>
<feColorMatrix in="SourceAlpha" type="matrix" values="0 0 0 0 0 0 0 0 0 0 0 0 0 0 0 0 0 0 127 0" result="hardAlpha"/>
<feOffset dx="11.3499" dy="9.60373"/>
<feGaussianBlur stdDeviation="9.19994"/>
<feComposite in2="hardAlpha" operator="arithmetic" k2="-1" k3="1"/>
<feColorMatrix type="matrix" values="0 0 0 0 1 0 0 0 0 1 0 0 0 0 1 0 0 0 0.46 0"/>
<feBlend mode="normal" in2="shape" result="effect1_innerShadow_8_140"/>
</filter>
</defs>
</svg>

<svg viewBox="60 85 230 170" fill="none" xmlns="http://www.w3.org/2000/svg"><g filter="url(#a)" fill="#0080FF"><path d="M213.004 238.293a3.713 3.713 0 0 0 3.667-3.011l26.25-136.547c.706-3.673-3.85-5.965-6.378-3.208l-72.285 78.834a3.731 3.731 0 0 1-.808.663l-91.396 55.551c-3.196 1.943-1.835 6.858 1.905 6.881l139.045.837Z"/><path d="M135.481 237.855a3.71 3.71 0 0 1-3.625-3.06L107.473 97.902c-.656-3.683 3.931-5.912 6.421-3.12l71.202 79.813c.233.261.502.488.799.674l90.628 56.794c3.169 1.987 1.742 6.883-1.998 6.855l-139.044-1.063Z"/></g><defs><filter id="a" x="70.265" y="93.527" width="219.355" height="154.995" filterUnits="userSpaceOnUse" color-interpolation-filters="sRGB"><feFlood flood-opacity="0" result="BackgroundImageFix"/><feBlend in="SourceGraphic" in2="BackgroundImageFix" result="shape"/><feColorMatrix in="SourceAlpha" values="0 0 0 0 0 0 0 0 0 0 0 0 0 0 0 0 0 0 127 0" result="hardAlpha"/><feOffset dx="11.35" dy="9.604"/><feGaussianBlur stdDeviation="9.2"/><feComposite in2="hardAlpha" operator="arithmetic" k2="-1" k3="1"/><feColorMatrix values="0 0 0 0 1 0 0 0 0 1 0 0 0 0 1 0 0 0 0.46 0"/><feBlend in2="shape" result="effect1_innerShadow_8_140"/></filter></defs></svg>
